packages/dnb-ui-lib/assets/icons/document_loupe_medium.svg

<svg width="24" height="24" viewBox="0 0 24 24" fill="none" xmlns="http://www.w3.org/2000/svg">
<path d="M2.5 1.00001L2.5 1.75001L2.5 1.00001ZM12.5362 1V0.25H12.5362L12.5362 1ZM17.5044 7.48446C17.7719 7.80066 18.2452 7.8401 18.5614 7.57254C18.8776 7.30498 18.917 6.83175 18.6495 6.51554L17.5044 7.48446ZM13.2996 1.35406L13.8721 0.869602L13.8721 0.869601L13.2996 1.35406ZM21.9697 23.0303C22.2626 23.3232 22.7374 23.3232 23.0303 23.0303C23.3232 22.7374 23.3232 22.2626 23.0303 21.9697L21.9697 23.0303ZM20.5303 19.4697C20.2374 19.1768 19.7626 19.1768 19.4697 19.4697C19.1768 19.7626 19.1768 20.2374 19.4697 20.5303L20.5303 19.4697ZM5 5.75H10.5V4.25H5V5.75ZM5 8.75H11.5V7.25H5V8.75ZM5 19.75H8.5V18.25H5V19.75ZM2.5 1.75001L12.5362 1.75L12.5362 0.25L2.5 0.250013L2.5 1.75001ZM2.5 23.75H12V22.25H2.5V23.75ZM0.75 2.00001V22H2.25V2.00001H0.75ZM18.6495 6.51554L13.8721 0.869602L12.727 1.83852L17.5044 7.48446L18.6495 6.51554ZM2.5 22.25C2.36193 22.25 2.25 22.1381 2.25 22H0.75C0.75 22.9665 1.5335 23.75 2.5 23.75V22.25ZM12.5362 1.75C12.6097 1.75 12.6795 1.78238 12.727 1.83852L13.8721 0.869601C13.5396 0.476638 13.051 0.25 12.5362 0.25V1.75ZM2.5 0.250013C1.5335 0.250014 0.75 1.03352 0.75 2.00001H2.25C2.25 1.86194 2.36193 1.75001 2.5 1.75001L2.5 0.250013ZM19.0227 15.1364C19.0227 17.2827 17.2827 19.0227 15.1364 19.0227V20.5227C18.1112 20.5227 20.5227 18.1112 20.5227 15.1364H19.0227ZM15.1364 19.0227C12.99 19.0227 11.25 17.2827 11.25 15.1364H9.75C9.75 18.1112 12.1616 20.5227 15.1364 20.5227V19.0227ZM11.25 15.1364C11.25 12.99 12.99 11.25 15.1364 11.25V9.75C12.1616 9.75 9.75 12.1616 9.75 15.1364H11.25ZM15.1364 11.25C17.2827 11.25 19.0227 12.99 19.0227 15.1364H20.5227C20.5227 12.1616 18.1112 9.75 15.1364 9.75V11.25ZM19.4697 20.5303L21.9697 23.0303L23.0303 21.9697L20.5303 19.4697L19.4697 20.5303Z" fill="black"/>
</svg>

<svg width="24" height="24" viewBox="0 0 24 24" fill="none" xmlns="http://www.w3.org/2000/svg"><path d="M2.5 1v.75V1zm10.036 0V.25 1zm4.968 6.484a.75.75 0 001.145-.968l-1.145.968zM13.3 1.354l.572-.484-.572.484zm8.67 21.676a.75.75 0 101.06-1.06l-1.06 1.06zm-1.44-3.56a.75.75 0 10-1.06 1.06l1.06-1.06zM5 5.75h5.5v-1.5H5v1.5zm0 3h6.5v-1.5H5v1.5zm0 11h3.5v-1.5H5v1.5zm-2.5-18h10.036V.25H2.5v1.5zm0 22H12v-1.5H2.5v1.5zM.75 2v20h1.5V2H.75zm17.9 4.516L13.872.87l-1.145.969 4.777 5.645 1.145-.968zM2.5 22.25a.25.25 0 01-.25-.25H.75c0 .966.784 1.75 1.75 1.75v-1.5zm10.036-20.5a.25.25 0 01.191.089l1.145-.97A1.75 1.75 0 0012.536.25v1.5zM2.5.25A1.75 1.75 0 00.75 2h1.5a.25.25 0 01.25-.25V.25zm16.523 14.886a3.886 3.886 0 01-3.887 3.887v1.5a5.386 5.386 0 005.387-5.387h-1.5zm-3.887 3.887a3.886 3.886 0 01-3.886-3.887h-1.5a5.386 5.386 0 005.386 5.387v-1.5zm-3.886-3.887a3.886 3.886 0 013.886-3.886v-1.5a5.386 5.386 0 00-5.386 5.386h1.5zm3.886-3.886a3.886 3.886 0 013.887 3.886h1.5a5.386 5.386 0 00-5.387-5.386v1.5zm4.334 9.28l2.5 2.5 1.06-1.06-2.5-2.5-1.06 1.06z" fill="#000"/></svg>
